X: 1
T: Crested Hens
M: 3/4
L: 1/8
R: waltz
K: Dmaj
|  E3G FE | B4 Bc | dc Be dc | dc BA GF |
|  E3G FE | B4 Bc | dc BA GA | B3G   FD |
|  E3G FE | B4 Bc | dc Be dc | dc BA GF |
|  E3G FE | B4 Bc | dc BA GA | B4    ef ||
|| gB Bg gB | =c4ef | gf ag fe | ^d2e2 f2 |
|  gB Bg gB | =c4ef | gf ag fd |  e3e  ef |
|  gB Bg gB | =c4ef | gf ag fe | ^d2e2 f2 |
|  gB Bg gB | =c4ef | gf ag fd |  e3G  FA |]
